app/dist/common/images/sumitomo-realty-and-development.svg

<svg height="18" viewBox="0 0 18 18" width="18" xmlns="http://www.w3.org/2000/svg"><path d="m0 0h18v18h-18z" fill="#f0f3fa"/><path d="m10.12 9-1.12.9-1.1-.9 1.1-.9zm1.64-3.16-2.22-1.84-.54.45-.55-.45-2.18 1.84.55.45-1.1.9-.54-.45-2.18 1.8.54.46-.54.45 2.18 1.8.54-.45 1.1.9-.55.46 2.18 1.84.55-.45.54.45 2.18-1.8-.54-.46 1.09-.9.55.45 2.18-1.79-.55-.5.55-.45-2.18-1.8-.55.44-1.09-.9z" fill="#ffe300"/></svg>

<!-- by TradingView --><svg xmlns="http://www.w3.org/2000/svg" width="18" height="18" viewBox="0 0 18 18"><path fill="#F0F3FA" d="M0 0h18v18H0z"/><path d="M10.12 9 9 9.9 7.9 9 9 8.1l1.12.9Zm1.64-3.16L9.54 4 9 4.45 8.45 4 6.27 5.84l.55.45-1.1.9-.54-.45L3 8.54l.54.46-.54.45 2.18 1.8.54-.45 1.1.9-.55.46L8.45 14l.55-.45.54.45 2.18-1.8-.54-.46 1.09-.9.55.45L15 9.5 14.45 9l.55-.45-2.18-1.8-.55.44-1.09-.9.58-.45Z" fill="#FFE300"/></svg>
